svgs/light/tablet-rugged.svg

<svg xmlns="http://www.w3.org/2000/svg" viewBox="0 0 448 512"><!--! Font Awesome Pro 6.0.0-alpha3 by @fontawesome - https://fontawesome.com License - https://fontawesome.com/license (Commercial License) --><path d="M439.3 164.4c5.375-2.625 8.75-8.125 8.75-14.25v-76.25c0-6.125-3.375-11.63-8.75-14.25l-23.25-11.62c0-26.5-21.5-48-47.1-48h-288c-26.5 0-48 21.5-48 48L8.799 59.63C3.424 62.25 .0492 67.75 .0492 73.88v76.25c0 6.125 3.375 11.63 8.75 14.25l23.25 11.62v16L8.799 203.6C3.424 206.3 .0492 211.8 .0492 217.9v76.25c0 6.125 3.375 11.63 8.75 14.25l23.25 11.62v16l-23.25 11.62c-5.375 2.625-8.75 8.125-8.75 14.25v76.25c0 6.125 3.375 11.63 8.75 14.25l23.25 11.62c0 26.5 21.5 48 48 48h288c26.5 0 47.1-21.5 47.1-48l23.25-11.62c5.375-2.625 8.75-8.125 8.75-14.25v-76.25c0-6.125-3.375-11.63-8.75-14.25l-23.25-11.62v-16l23.25-11.62c5.375-2.625 8.75-8.125 8.75-14.25V217.9c0-6.125-3.375-11.63-8.75-14.25l-23.25-11.62v-16L439.3 164.4zM401.8 220.6L416 227.8v56.5l-32 16v55.5l32 16v56.5l-32 16V464c0 8.75-7.25 16-16 16h-288C71.25 480 64 472.8 64 464v-19.75l-32-16v-56.5l32-16V300.2l-32-16V227.8l32-16V156.2l-32-16V83.75l32-16V48C64 39.25 71.25 32 80 32h288C376.8 32 384 39.25 384 48v19.75l32 16v56.5l-32 16v55.5L401.8 220.6zM320 64H128C110.4 64 96 78.4 96 96v320c0 17.6 14.4 32 32 32h192c17.6 0 32-14.4 32-32V96C352 78.4 337.6 64 320 64zM320 416H128V96h192V416z"/></svg>

<svg xmlns="http://www.w3.org/2000/svg" viewBox="0 0 448 512"><!-- Font Awesome Pro 6.0.0-alpha2 by @fontawesome - https://fontawesome.com License - https://fontawesome.com/license (Commercial License) --><path d="M439.25 164.375C444.625 161.75 448 156.25 448 150.125V73.875C448 67.75 444.625 62.25 439.25 59.625L416 48C416 21.5 394.5 0 368 0H80C53.5 0 32 21.5 32 48L8.75 59.625C3.375 62.25 0 67.75 0 73.875V150.125C0 156.25 3.375 161.75 8.75 164.375L32 176V192L8.75 203.625C3.375 206.25 0 211.75 0 217.875V294.125C0 300.25 3.375 305.75 8.75 308.375L32 320V336L8.75 347.625C3.375 350.25 0 355.75 0 361.875V438.125C0 444.25 3.375 449.75 8.75 452.375L32 464C32 490.5 53.5 512 80 512H368C394.5 512 416 490.5 416 464L439.25 452.375C444.625 449.75 448 444.25 448 438.125V361.875C448 355.75 444.625 350.25 439.25 347.625L416 336V320L439.25 308.375C444.625 305.75 448 300.25 448 294.125V217.875C448 211.75 444.625 206.25 439.25 203.625L416 192V176L439.25 164.375ZM401.75 220.625L416 227.75V284.25L384 300.25V355.75L416 371.75V428.25L384 444.25V464C384 472.75 376.75 480 368 480H80C71.25 480 64 472.75 64 464V444.25L32 428.25V371.75L64 355.75V300.25L32 284.25V227.75L64 211.75V156.25L32 140.25V83.75L64 67.75V48C64 39.25 71.25 32 80 32H368C376.75 32 384 39.25 384 48V67.75L416 83.75V140.25L384 156.25V211.75L401.75 220.625ZM320 64H128C110.4 64 96 78.4 96 96V416C96 433.6 110.4 448 128 448H320C337.6 448 352 433.6 352 416V96C352 78.4 337.6 64 320 64ZM320 416H128V96H320V416Z"/></svg>
